src/shared/assets/character/dialog-pin.svg

<svg width="24" height="24" viewBox="0 0 24 24" fill="none" xmlns="http://www.w3.org/2000/svg">
<g clip-path="url(#clip0_101_35306)">
<path d="M6.64862 4.00582L6.64862 1.79682H17.3514L17.3514 4.00582L15.2124 4.0136V9.14719C16.1826 9.70211 16.99 10.5022 17.5538 11.4673C18.1176 12.4324 18.4179 13.5287 18.4248 14.6464L18.417 16.7854L20.5638 16.7854L20.556 19.0021L13.1045 19.0021L13.1045 23.249H10.8955L10.8955 18.9866L3.44401 19.0021L3.44401 16.7931L5.58301 16.7854L5.58301 14.6541C5.58712 13.5338 5.88617 12.4343 6.45008 11.4662C7.01399 10.4982 7.82288 9.69565 8.79539 9.13942V4.00582L6.64862 4.00582Z" fill="black"/>
</g>
<defs>
<clipPath id="clip0_101_35306">
<rect width="24" height="24" fill="white" transform="matrix(-1 0 0 1 24 0)"/>
</clipPath>
</defs>
</svg>

<svg xmlns="http://www.w3.org/2000/svg" fill="none" viewBox="0 0 24 24"><g clip-path="url(#a)"><path fill="#000" d="M6.649 4.006v-2.21H17.35v2.21l-2.139.008v5.133a6.38 6.38 0 0 1 3.213 5.5l-.008 2.138h2.147l-.008 2.217h-7.452v4.247h-2.208v-4.262l-7.452.015v-2.209l2.139-.008v-2.13a6.38 6.38 0 0 1 3.212-5.516V4.006z"/></g><defs><clipPath id="a"><path fill="#fff" d="M24 0H0v24h24z"/></clipPath></defs></svg>
